X:154
T:A la mar fui por naranxes (MQ 030)
R:Xiraldilla
C:Tradicional
S:Música Tradicional Asturiana, (C) Tello & Tito. Asturies, 2001.
S:http://pagina.de/MusTradAst <telloytito@asturies.org>
N:Canción popularísima en toda Asturias.
N:Es muy corriente que la mayoría de los gaiteros la toquen en modo mayor a pesar de estar escrita en menor.
N:Tocándola tal como está escrita sirve muy bien para practicar el Lab y el Mib.
A:Asturies
Z:Manolo Quirós 030
M:2/4
L:1/8
Q:1/4=100
K:Cm
|: CD EF|G3 F|A2 G2|GG GG|F3 E|D2 C2|
CD EF|G3 F|A2 G2|GG GG|F3 E|D2 C2|
DE DC|=B,4|DD DE|F3 E|D2 C2|
DE DC|=B,4|DD DE|F3 D|GF ED|C4 :|


